simple/Burrito.svg

<svg xmlns="http://www.w3.org/2000/svg" viewBox="0 0 36 36">
	god, whatever editor they used for this is absolute shit
	<g>
		<!--<path fill="#FFCC4D" d="M 26.3023,13.4892 l 1.236,1.236 c 0.004,0.011 0.006,0.024 0.01,0.035 c 0.356,0.986 0.137,2.426 -0.511,3.69 c -0.641,1.249 -1.702,2.315 -3.034,2.601 c -0.439,0.094 -0.903,0.112 -1.396,0.013 c -1.503,-0.301 -4.021,-0.209 -5.107,0.527 c -0.338,0.23 -0.542,0.519 -0.527,0.882 c 0.025,0.63 -0.75,0.981 -1.809,1.009 c -1.405,0.037 -3.313,-0.496 -4.531,-1.714 l -2.465,-2.465 l -5.227,-5.321 c 3.393,2.683 8.718,2.964 12.389,0.509 c 3.779,-2.527 4.429,-7.032 1.616,-10.312 l 9.182,9.136 l 0.174,0.174 Z"/>-->
		<!--<path fill="#FFAC33" d="M 19.0143,17.4709 c 0.389,0.389 0.291,0.921 -0.22,1.189 c -0.511,0.267 -1.24,0.169 -1.629,-0.221 c -0.389,-0.389 -0.291,-0.921 0.22,-1.188 c 0.511,-0.268 1.24,-0.169 1.629,0.22 Z"/>
		<path fill="#FFAC33" d="M 21.9034,11.9077 c -0.268,0.511 -0.799,0.609 -1.189,0.22 c -0.389,-0.389 -0.487,-1.118 -0.22,-1.629 c 0.267,-0.51 0.8,-0.609 1.189,-0.22 s 0.487,1.118 0.22,1.629 Z"/>
		<path fill="#D99E82" d="M 24.4567,16.2823 c 0.389,0.389 0.507,1.138 0.264,1.673 s -0.755,0.653 -1.144,0.264 c -0.39,-0.389 -0.508,-1.138 -0.265,-1.673 c 0.244,-0.535 0.756,-0.653 1.145,-0.264 Z"/>
		<path fill="#D99E82" d="M 12.7468,21.0643 c -0.584,0.195 -1.372,0.037 -1.761,-0.352 s -0.232,-0.862 0.352,-1.057 c 0.584,-0.194 1.372,-0.037 1.761,0.352 c 0.389,0.39 0.232,0.862 -0.352,1.057 Z"/>-->
	</g>
	
	foil
	<g>
		<path fill="#BCBEC0" d="M 24.0031,21.0509 l 10.481,10.481 c -0.033,0.046 -1.476,2.234 -3.962,3.081 l -13.022,-13.021 c 1.086,-0.737 3.605,-0.828 5.108,-0.528 c 0.492,0.099 0.957,0.081 1.395,-0.013 Z"/>
		<path fill="#BCBEC0" d="M 33.8595,21.0822 c 0.738,0.83 2.367,3.058 2.105,6.295 l -8.928,-8.927 c 0.656,-1.279 0.875,-2.739 0.502,-3.725 l -1.236,-1.236 c 1.409,-0.057 3.447,-0.761 4.124,-0.084 c 0.704,0.704 -1.071,2.024 -0.071,4.137 l 3.522,3.522 l -0.018,0.018 Z"/>
		<path fill="#808285" d="M 15.1645,23.4819 l 11.639,11.639 c -2.566,-0.22 -4.452,-1.657 -4.9,-2.083 c -0.448,-0.425 -4.931,-4.931 -4.931,-4.931 c -1.409,-1.409 -3.745,-0.463 -5.635,-1.409 c -2.817,-1.408 -1.408,-4.225 -2.112,-4.929 c -0.353,-0.352 -0.529,-1.233 -0.353,-1.761 l 1.761,1.761 c 1.218,1.217 3.126,1.75 4.531,1.713 Z"/>
		<path fill="#A7A9AC" d="M 17.5002,21.5915 l 13.022,13.022 c -0.073,0.027 -1.556,0.673 -3.719,0.507 l -11.639,-11.639 c 1.059,-0.028 1.834,-0.378 1.809,-1.009 c -0.015,-0.362 0.189,-0.652 0.527,-0.881 Z"/>
		<path fill="#DCDDDE" d="M 27.0369,18.4498 l 8.928,8.928 c -0.008,0.098 -0.134,2.252 -1.481,4.154 l -10.481,-10.481 c 1.333,-0.286 2.393,-1.352 3.034,-2.601 Z"/>
	</g>
		<path fill="#BCBEC0" d="M 1.99999,31.97951 l 0,14.87891 c -0.05607,0.00923 -2.63337,0.53803 -4.99915,-0.62534 l -0.00071,-18.48543 c 1.29397,0.24772 3.14656,1.97113 4.00046,3.2509 c 0.27895,0.41949 0.62179,0.73678 0.9994,0.98095 Z"/>
		<path fill="#BCBEC0" d="M 8.97389,38.99784 c -0.0653,1.11297 -0.49047,3.85069 -2.97408,5.96235 l -0.00071,-12.67355 c 1.37347,-0.44221 2.56523,-1.32307 3.00034,-2.2877 v-1.75464 c 1.04057,0.95966 2.98686,1.90653 2.98686,2.86761 c 0,0.9994 -2.19684,0.67644 -2.98686,2.88606 l 0,4.99986 l -0.02555,0 Z"/>
		<path fill="#808285" d="M -5.99921,27.43137 l 0,16.52282 c -1.6652,-1.97751 -1.9839,-4.33619 -1.99952,-4.95656 c -0.01633,-0.61966 0,-7.00009 0,-7.00009 c 0,-2.00023 -2.32958,-2.98686 -2.99963,-4.99986 c -1.00011,-2.99892 1.99952,-3.99833 1.99952,-4.99773 c -0.00071,-0.50041 0.4997,-1.25067 0.9994,-1.50053 v2.49993 c 0.00071,1.72837 0.97669,3.461 2.00023,4.43202 Z"/>
		<path fill="#A7A9AC" d="M -2.99951,27.74745 l 0,18.48614 c -0.07098,-0.03265 -1.58215,-0.62676 -2.99963,-2.27989 v-16.52282 c 0.77156,0.73181 1.57009,1.03347 2.00023,0.56784 c 0.2463,-0.2676 0.59695,-0.32864 0.9994,-0.25127 Z"/>
		<path fill="#DCDDDE" d="M 5.99967,32.28664 l 0,12.67426 c -0.07524,0.06388 -1.69359,1.50336 -3.99975,1.89731 l 0,-14.87891 c 1.14917,0.74316 2.65822,0.73891 3.99975,0.30735 Z"/>	
	<!--	<g>
		<path fill="#C1694F" d="M 13.9213,13.0821 c 2.585,-1.729 3.254,-4.669 1.826,-7.066 c -0.005,-0.005 -0.008,-0.011 -0.013,-0.016 h0.004 c -0.001,-0.001 -0.001,-0.001 -0.001,-0.002 l -7.069,-0.059 c -0.967,-0.584 -1.791,-0.692 -2.501,-0.675 c -1.104,0.025 -1.931,0.662 -2.577,1.308 c -0.23,0.23 -0.366,0.531 -0.435,0.835 c -0.3,-0.08 -0.631,-0.003 -0.888,0.204 c -0.001,0.01 -0.003,0.02 -0.004,0.029 c -0.077,0.495 -0.079,1.003 0,1.502 c 0.115,0.088 0.242,0.154 0.378,0.189 c 0.043,0.168 0.113,0.331 0.245,0.462 c 0.021,0.021 0.05,0.03 0.073,0.049 c -0.156,0.318 -0.18,0.675 -0.099,1.012 c 0,0 0.001,0.001 0.001,0.002 c 0.257,0.461 0.583,0.905 0.994,1.317 c 2.529,2.529 7.036,2.936 10.066,0.909 Z"/>
		<path fill="#F4900C" d="M 8.6682,6.1498 l 7.279,0.271 c -0.124,-0.276 -0.281,-0.554 -0.484,-0.834 c -2.601,-1.921 -6.547,-2.087 -9.29,-0.253 l -0.006,0.035 c 0.71,-0.016 1.534,0.197 2.501,0.781 Z"/>
	</g>-->
	<g transform="rotate(-45) scale(0.9962) translate(0.09549)">
		<path fill="#FFCC4D" d=" M
9,30
 C 8.99433,30.00945 8.98652,30.0201
8.98155,30.03074
 C 8.53438,30.9833 7.35681,31.84997
6,32.28721
 C 4.65814,32.71877 3.14839,32.72232
2,31.97987
 C 1.6216,31.73498 1.27947,31.41841
1,31
 C 0.14662,29.71772 -1.70596,27.99574
-3,27.7473
 C -3.4024,27.67065 -3.75233,27.73098
-4,28
 C -4.42877,28.46421 -5.22801,28.16325
-6,27.43144
 C -7.02311,26.46043 -8,24.7278
-8,23
 L
-8,19.5
 L
-7.93237,12.01237
 L
8.96665,14.99497
 L
9,28
Z"/>
		
		<path fill="#FFAC33" d="M 1,25.89734 c 0,0.55223 -0.44718,0.86028 -1,0.6878 c -0.55223,-0.17319 -1,-0.7602 -1,-1.31314 c 0,-0.55223 0.44718,-0.86028 1,-0.68709 c 0.55294,0.17248 1,0.7602 1,1.31243 Z"/>
		<path fill="#FFAC33" d="M 7,24 c -0.55294,0.17248 -1,-0.13486 -1,-0.6878 c 0,-0.55223 0.44789,-1.13924 1,-1.31243 c 0.55152,-0.17248 1,0.13557 1,0.6878 c 0,0.55223 -0.44789,1.13924 -1,1.31243 Z"/>
		<path fill="#D99E82" d="M 5.70673,28.91671 c 0,0.55223 -0.44789,1.16763 -1,1.37489 c -0.55223,0.20726 -1,-0.0724 -1,-0.62463 c -0,-0.55294 0.44718,-1.16834 1,-1.3756 c 0.55294,-0.20655 1,0.07311 1,0.62534 Z"/>
		<path fill="#D99E82" d="M -6,24 c -0.55294,-0.27611 -1,-0.94759 -1,-1.5 c 0,-0.55223 0.44718,-0.77653 1,-0.5 c 0.55223,0.27682 1,0.94759 1,1.5 c -0,0.55294 -0.44718,0.77653 -1,0.5 Z"/>
		
		<circle r="7.5" fill="#FFAC33" transform="translate(0.5 12.667) skewY(11)"/>
		<g fill="#C1694F">
			<path d="M -3.11343,7.49723
 C -2.84868,7.33043 -2.53849,7.21331
-2.21198,7.21331
 C -1.29492,7.21331 -0.25576,7.34818
0.54561,8.11405
 C 1.06163,8.60595 1.56985,9.26749
1.84171,10.36839
 L
6.81743,15.42787
 C 6.81672,15.42858 6.81672,15.42858
6.81672,15.43
 L
6.81388,15.42716
 C 6.81388,15.43426 6.81176,15.44065
6.81176,15.44775
 C 6.12395,18.16275 3.56227,19.77471
0.50018,19.16712
 C -3.0893,18.45519 -5.9995,14.96721
 -5.9995,11.37702 l-0.5,-0.5 Z"/>
			<circle cx="-3.98" cy="8" r="1"/>
			<circle cx="-3.98" cy="9" r="1"/>
			<circle cx="-4.48" cy="10.5" r="1.5"/>
		</g>
		<circle cx="-3" cy="17" r="1" fill="#D99E82"/>
		<path fill="#F4900C" d=" M
1.69208,10.51788
 C 1.42023,9.41697 0.98654,8.6809
0.47122,8.1883
 L
0.50032,8.16772
 C 3.74909,8.81293 6.43215,11.73164
6.91482,14.94137
 C 6.86016,15.28421 6.77428,15.59298
6.66639,15.8769
 L
1.69208,10.51788
Z"/>
		<circle r="7.5" stroke-width="2" fill="none" stroke="#FFE8B6" transform="translate(0.5 12.667) skewY(11)"/>
		
		<g fill="#D99E82">
			<circle r="1" cx="-2" cy="10"/>
			<circle r="1.5" cx="-2.5" cy="12.5"/>
			<circle r="1" cx="-1" cy="15"/>
			<circle r="0.5" cx="-2.5" cy="8.5"/>
			<circle r="1" cx="-4" cy="15"/>
		</g>
		
		<circle r="1.5" cx="0.5" cy="8.5" fill="#FFD983"/>
		
		<g fill="#77B255">
			<circle r="2" cx="3" cy="10"/>
			<circle r="1" cx="3" cy="12"/>
			<circle r="1" cx="4" cy="13"/>
			<circle r="1" cx="3" cy="16"/>
			<circle r="1" cx="4" cy="17"/>
			<circle r="1" cx="3" cy="18"/>
			<circle r="1" cx="2" cy="17"/>
			<circle r="1" cx="5" cy="17"/>
			<circle r="1" cx="4" cy="15"/>
			<circle r="1" cx="5" cy="14"/>
			<circle r="1" cx="4" cy="12"/>
			<circle r="1" cx="2" cy="13"/>
			<circle r="1.375" cx="2.625" cy="14.375"/>
		</g>
		
		<g fill="#A6D388">
			<circle r="0.5" cx="4.5" cy="16.5"/>
			<circle r="0.5" cx="2.5" cy="9.5"/>
			<circle r="1" cx="4" cy="16"/>
			<circle r="1" cx="3" cy="11"/>
			<circle r="1" cx="4" cy="12"/>
			<circle r="1.5" cx="3.5" cy="13.5"/>
		</g>
		<g fill="#77B255">
			<circle r="1" cx="6" cy="15"/>
			<circle r="1" cx="5" cy="13"/>
			<circle r="1" cx="6" cy="12"/>
		</g>
		<g fill="#DD2E44">
			<circle r="0.75" cx="4.5" cy="10.25"/>
			<circle r="0.75" cx="5.5" cy="15.25"/>
			<circle r="1" cx="3" cy="17"/>
			<circle r="1" cx="4" cy="13"/>
			<circle r="0.5" cx="6.5" cy="12.5"/>
		</g>
		<g fill="#FFD983">
			<circle r="1" cx="0" cy="18"/>
			<circle r="1.5" cx="0.5" cy="11.5"/>
			<circle r="1.5" cx="-0.5" cy="13.5"/>
			<circle r="1.5" cx="0.5" cy="15.5"/>
		</g>
		<g fill="#FFE8B6">
			<circle r="1.25" cx="0" cy="14.75"/>
			<circle r="0.75" cx="0.5" cy="12.25"/>
			<circle r="0.75" cx="0.5" cy="10.25"/>
		</g>
	</g>
	
	<![CDATA[
		<path fill="#808285" d=" M
15.1645,23.4819
 L
26.8035,35.1209
 C 24.2375,34.9009 22.3515,33.4639
21.9035,33.0379 *m2
 C 21.4555,32.6129 16.9725,28.1069
16.9725,28.1069 *n
 C 15.5635,26.6979 13.2275,27.6439
11.3375,26.6979 *o
 C 8.5205,25.2899 9.9295,22.4729
9.2255,21.7689 *p
 C 8.8725,21.4169 8.6965,20.5359
8.8725,20.0079 *a
 L
10.6335,21.7689 *b
 C 11.8515,22.9859 13.7595,23.5189
15.1645,23.4819 *c1
 Z"/>
		<path fill="#A7A9AC" d=" M
17.5002,21.5915
 L
30.5222,34.6135
 C 30.4492,34.6405 28.9662,35.2865
26.8032,35.1205
 L
15.1642,23.4815 *c2
 C 16.2232,23.4535 16.9982,23.1035
16.9732,22.4725 *d
 C 16.9582,22.1105 17.1622,21.8205
17.5002,21.5915 *e1
 Z"/>
		<path fill="#BCBEC0" d=" M
24.0031,21.0509
 L
34.4841,31.5319
 C 34.4511,31.5779 33.0081,33.7659
30.5221,34.6129
 L
17.5001,21.5919 *e2
 C 18.5861,20.8549 21.1051,20.7639
22.6081,21.0639 *f
 C 23.1001,21.1629 23.5651,21.1449
24.0031,21.0509 *g1
 Z"/>

<path fill="#DCDDDE" d=" M
27.0369,18.4498
 L
35.9649,27.3778
 C 35.9569,27.4758 35.8309,29.6298
34.4839,31.5318
 L
24.0029,21.0508 *g2
 C 25.3359,20.7648 26.3959,19.6988
27.0369,18.4498 *h1
 Z"/>
		<path fill="#BCBEC0" d=" M
33.8595,21.0822
 C 34.5975,21.9122 36.2265,24.1402
35.9645,27.3772
 L
27.0365,18.4502 *h2
 C 27.6925,17.1712 27.9115,15.7112
27.5385,14.7252 *i
 L
26.3025,13.4892 *j
 C 27.7115,13.4322 29.7495,12.7282
30.4265,13.4052 *k
 C 31.1305,14.1092 29.3555,15.4292
30.3555,17.5422 *l
 L
33.8775,21.0642 *m1
 L
33.8595,21.0822
 Z"/>
]]>
</svg>

<svg xmlns="http://www.w3.org/2000/svg" viewBox="0 0 36 36">
	god, whatever editor they used for this is absolute shit
	<g>
		<!--<path fill="#FFCC4D" d="M 26.3023,13.4892 l 1.236,1.236 c 0.004,0.011 0.006,0.024 0.01,0.035 c 0.356,0.986 0.137,2.426 -0.511,3.69 c -0.641,1.249 -1.702,2.315 -3.034,2.601 c -0.439,0.094 -0.903,0.112 -1.396,0.013 c -1.503,-0.301 -4.021,-0.209 -5.107,0.527 c -0.338,0.23 -0.542,0.519 -0.527,0.882 c 0.025,0.63 -0.75,0.981 -1.809,1.009 c -1.405,0.037 -3.313,-0.496 -4.531,-1.714 l -2.465,-2.465 l -5.227,-5.321 c 3.393,2.683 8.718,2.964 12.389,0.509 c 3.779,-2.527 4.429,-7.032 1.616,-10.312 l 9.182,9.136 l 0.174,0.174 Z"/>-->
		<!--<path fill="#FFAC33" d="M 19.0143,17.4709 c 0.389,0.389 0.291,0.921 -0.22,1.189 c -0.511,0.267 -1.24,0.169 -1.629,-0.221 c -0.389,-0.389 -0.291,-0.921 0.22,-1.188 c 0.511,-0.268 1.24,-0.169 1.629,0.22 Z"/>
		<path fill="#FFAC33" d="M 21.9034,11.9077 c -0.268,0.511 -0.799,0.609 -1.189,0.22 c -0.389,-0.389 -0.487,-1.118 -0.22,-1.629 c 0.267,-0.51 0.8,-0.609 1.189,-0.22 s 0.487,1.118 0.22,1.629 Z"/>
		<path fill="#D99E82" d="M 24.4567,16.2823 c 0.389,0.389 0.507,1.138 0.264,1.673 s -0.755,0.653 -1.144,0.264 c -0.39,-0.389 -0.508,-1.138 -0.265,-1.673 c 0.244,-0.535 0.756,-0.653 1.145,-0.264 Z"/>
		<path fill="#D99E82" d="M 12.7468,21.0643 c -0.584,0.195 -1.372,0.037 -1.761,-0.352 s -0.232,-0.862 0.352,-1.057 c 0.584,-0.194 1.372,-0.037 1.761,0.352 c 0.389,0.39 0.232,0.862 -0.352,1.057 Z"/>-->
	</g>
	
	foil
	<g>
		<path fill="#BCBEC0" d="M 24.0031,21.0509 l 10.481,10.481 c -0.033,0.046 -1.476,2.234 -3.962,3.081 l -13.022,-13.021 c 1.086,-0.737 3.605,-0.828 5.108,-0.528 c 0.492,0.099 0.957,0.081 1.395,-0.013 Z"/>
		<path fill="#BCBEC0" d="M 33.8595,21.0822 c 0.738,0.83 2.367,3.058 2.105,6.295 l -8.928,-8.927 c 0.656,-1.279 0.875,-2.739 0.502,-3.725 l -1.236,-1.236 c 1.409,-0.057 3.447,-0.761 4.124,-0.084 c 0.704,0.704 -1.071,2.024 -0.071,4.137 l 3.522,3.522 l -0.018,0.018 Z"/>
		<path fill="#808285" d="M 15.1645,23.4819 l 11.639,11.639 c -2.566,-0.22 -4.452,-1.657 -4.9,-2.083 c -0.448,-0.425 -4.931,-4.931 -4.931,-4.931 c -1.409,-1.409 -3.745,-0.463 -5.635,-1.409 c -2.817,-1.408 -1.408,-4.225 -2.112,-4.929 c -0.353,-0.352 -0.529,-1.233 -0.353,-1.761 l 1.761,1.761 c 1.218,1.217 3.126,1.75 4.531,1.713 Z"/>
		<path fill="#A7A9AC" d="M 17.5002,21.5915 l 13.022,13.022 c -0.073,0.027 -1.556,0.673 -3.719,0.507 l -11.639,-11.639 c 1.059,-0.028 1.834,-0.378 1.809,-1.009 c -0.015,-0.362 0.189,-0.652 0.527,-0.881 Z"/>
		<path fill="#DCDDDE" d="M 27.0369,18.4498 l 8.928,8.928 c -0.008,0.098 -0.134,2.252 -1.481,4.154 l -10.481,-10.481 c 1.333,-0.286 2.393,-1.352 3.034,-2.601 Z"/>
	</g>
	<!--	<g>
		<path fill="#C1694F" d="M 13.9213,13.0821 c 2.585,-1.729 3.254,-4.669 1.826,-7.066 c -0.005,-0.005 -0.008,-0.011 -0.013,-0.016 h0.004 c -0.001,-0.001 -0.001,-0.001 -0.001,-0.002 l -7.069,-0.059 c -0.967,-0.584 -1.791,-0.692 -2.501,-0.675 c -1.104,0.025 -1.931,0.662 -2.577,1.308 c -0.23,0.23 -0.366,0.531 -0.435,0.835 c -0.3,-0.08 -0.631,-0.003 -0.888,0.204 c -0.001,0.01 -0.003,0.02 -0.004,0.029 c -0.077,0.495 -0.079,1.003 0,1.502 c 0.115,0.088 0.242,0.154 0.378,0.189 c 0.043,0.168 0.113,0.331 0.245,0.462 c 0.021,0.021 0.05,0.03 0.073,0.049 c -0.156,0.318 -0.18,0.675 -0.099,1.012 c 0,0 0.001,0.001 0.001,0.002 c 0.257,0.461 0.583,0.905 0.994,1.317 c 2.529,2.529 7.036,2.936 10.066,0.909 Z"/>
		<path fill="#F4900C" d="M 8.6682,6.1498 l 7.279,0.271 c -0.124,-0.276 -0.281,-0.554 -0.484,-0.834 c -2.601,-1.921 -6.547,-2.087 -9.29,-0.253 l -0.006,0.035 c 0.71,-0.016 1.534,0.197 2.501,0.781 Z"/>
	</g>-->
	<g transform="rotate(-45) scale(0.9962) translate(0.09549)">
		<path fill="#BCBEC0" d=" M
9,33.99798
 L
9,38.99784
 L
8.97389,38.99784
 C 8.90859,40.11081 8.48341,42.84853
6,44.96055
 C 5.92443,45.02479 4.30608,46.46427
2,46.85828
 C 1.94392,46.86765 -0.63338,47.39645
-3,46.2333
 C -3.07049,46.20093 -4.58166,45.60683
-6,43.95398
 C -7.66441,41.97668 -7.98312,39.618
-8,38.99763
 C -8.01506,38.37797 -8,31.99754
-8,31.99754
 L
9,33.99798
 Z"/>
		<path fill="#808285" d=" M
-8,39
 C -8.01506,38.37797 -8,32
-8,32
 C -8,30 -10.32831,29.01068
-11,27
 C -12,24 -9,23
-9,22
 C -9,21.5 -8.5,20.75
-8,20.5
 L
9,28.24431
 C 10.04001,29.20396 11.9863,30.15084
11.9863,31.11162
 C 11.9863,32.11162 9.78945,31.78836
9,34
 L
9,39
 L
-8,39
Z"/>
		<path fill="#FFCC4D" d=" M
9,30
 C 8.56433,30.96357 7.37257,31.84444
6,32.28664
 C 4.65814,32.7182 3.1491,32.72246
2,31.97944
 C 1.62238,31.73534 1.27954,31.41806
1,31
 C 0.1467,29.71879 -1.70589,27.99538
-3,27.74752
 C -3.40197,27.67008 -3.75261,27.73112
-4,28
 C -4.42906,28.46435 -5.22759,28.16268
-6,27.43109
 C -7.02275,26.46036 -8,24.72773
-8,23
 L
-8,19.5
 L
-7.93237,12.01237
 L
8.96665,14.99497
 L
9,28
Z"/>
		
		<path fill="#FFAC33" d="M 1,25.89734 c 0,0.55223 -0.44718,0.86028 -1,0.6878 c -0.55223,-0.17319 -1,-0.7602 -1,-1.31314 c 0,-0.55223 0.44718,-0.86028 1,-0.68709 c 0.55294,0.17248 1,0.7602 1,1.31243 Z"/>
		<path fill="#FFAC33" d="M 7,24 c -0.55294,0.17248 -1,-0.13486 -1,-0.6878 c 0,-0.55223 0.44789,-1.13924 1,-1.31243 c 0.55152,-0.17248 1,0.13557 1,0.6878 c 0,0.55223 -0.44789,1.13924 -1,1.31243 Z"/>
		<path fill="#D99E82" d="M 5.70673,28.91671 c 0,0.55223 -0.44789,1.16763 -1,1.37489 c -0.55223,0.20726 -1,-0.0724 -1,-0.62463 c -0,-0.55294 0.44718,-1.16834 1,-1.3756 c 0.55294,-0.20655 1,0.07311 1,0.62534 Z"/>
		<path fill="#D99E82" d="M -6,24 c -0.55294,-0.27611 -1,-0.94759 -1,-1.5 c 0,-0.55223 0.44718,-0.77653 1,-0.5 c 0.55223,0.27682 1,0.94759 1,1.5 c -0,0.55294 -0.44718,0.77653 -1,0.5 Z"/>
		
		<circle r="7.5" fill="#FFAC33" transform="translate(0.5 12.667) skewY(11)"/>
		<g fill="#C1694F">
			<path d="M -3.11343,7.49723
 C -2.84868,7.33043 -2.53849,7.21331
-2.21198,7.21331
 C -1.29492,7.21331 -0.25576,7.34818
0.54561,8.11405
 C 1.06163,8.60595 1.56985,9.26749
1.84171,10.36839
 L
6.81743,15.42787
 C 6.81672,15.42858 6.81672,15.42858
6.81672,15.43
 L
6.81388,15.42716
 C 6.81388,15.43426 6.81176,15.44065
6.81176,15.44775
 C 6.12395,18.16275 3.56227,19.77471
0.50018,19.16712
 C -3.0893,18.45519 -5.9995,14.96721
 -5.9995,11.37702 l-0.5,-0.5 Z"/>
			<circle cx="-3.98" cy="8" r="1"/>
			<circle cx="-3.98" cy="9" r="1"/>
			<circle cx="-4.48" cy="10.5" r="1.5"/>
		</g>
		<circle cx="-3" cy="17" r="1" fill="#D99E82"/>
		<path fill="#F4900C" d=" M
1.69208,10.51788
 C 1.42023,9.41697 0.98654,8.6809
0.47122,8.1883
 L
0.50032,8.16772
 C 3.74909,8.81293 6.43215,11.73164
6.91482,14.94137
 C 6.86016,15.28421 6.77428,15.59298
6.66639,15.8769
 L
1.69208,10.51788
Z"/>
		<circle r="7.5" stroke-width="2" fill="none" stroke="#FFE8B6" transform="translate(0.5 12.667) skewY(11)"/>
		
		<g fill="#D99E82">
			<circle r="1" cx="-2" cy="10"/>
			<circle r="1.5" cx="-2.5" cy="12.5"/>
			<circle r="1" cx="-1" cy="15"/>
			<circle r="0.5" cx="-2.5" cy="8.5"/>
			<circle r="1" cx="-4" cy="15"/>
		</g>
		
		<circle r="1.5" cx="0.5" cy="8.5" fill="#FFD983"/>
		
		<g fill="#77B255">
			<circle r="2" cx="3" cy="10"/>
			<circle r="1" cx="3" cy="12"/>
			<circle r="1" cx="4" cy="13"/>
			<circle r="1" cx="3" cy="16"/>
			<circle r="1" cx="4" cy="17"/>
			<circle r="1" cx="3" cy="18"/>
			<circle r="1" cx="2" cy="17"/>
			<circle r="1" cx="5" cy="17"/>
			<circle r="1" cx="4" cy="15"/>
			<circle r="1" cx="5" cy="14"/>
			<circle r="1" cx="4" cy="12"/>
			<circle r="1" cx="2" cy="13"/>
			<circle r="1.375" cx="2.625" cy="14.375"/>
		</g>
		
		<g fill="#A6D388">
			<circle r="0.5" cx="4.5" cy="16.5"/>
			<circle r="0.5" cx="2.5" cy="9.5"/>
			<circle r="1" cx="4" cy="16"/>
			<circle r="1" cx="3" cy="11"/>
			<circle r="1" cx="4" cy="12"/>
			<circle r="1.5" cx="3.5" cy="13.5"/>
		</g>
		<g fill="#77B255">
			<circle r="1" cx="6" cy="15"/>
			<circle r="1" cx="5" cy="13"/>
			<circle r="1" cx="6" cy="12"/>
		</g>
		<g fill="#DD2E44">
			<circle r="0.75" cx="4.5" cy="10.25"/>
			<circle r="0.75" cx="5.5" cy="15.25"/>
			<circle r="1" cx="3" cy="17"/>
			<circle r="1" cx="4" cy="13"/>
			<circle r="0.5" cx="6.5" cy="12.5"/>
		</g>
		<g fill="#FFD983">
			<circle r="1" cx="0" cy="18"/>
			<circle r="1.5" cx="0.5" cy="11.5"/>
			<circle r="1.5" cx="-0.5" cy="13.5"/>
			<circle r="1.5" cx="0.5" cy="15.5"/>
		</g>
		<g fill="#FFE8B6">
			<circle r="1.25" cx="0" cy="14.75"/>
			<circle r="0.75" cx="0.5" cy="12.25"/>
			<circle r="0.75" cx="0.5" cy="10.25"/>
		</g>
	</g>

		
</svg>
